raw/16/outline/shield-alert.svg

<svg width="16" height="16" viewBox="0 0 16 16" fill="none" xmlns="http://www.w3.org/2000/svg">
<path d="M7 10.9999C7 10.7347 7.10536 10.4804 7.29289 10.2928C7.48043 10.1053 7.73478 9.99994 8 9.99994H8.007C8.27222 9.99994 8.52657 10.1053 8.71411 10.2928C8.90164 10.4804 9.007 10.7347 9.007 10.9999C9.007 11.2652 8.90164 11.5195 8.71411 11.707C8.52657 11.8946 8.27222 11.9999 8.007 11.9999H8C7.73478 11.9999 7.48043 11.8946 7.29289 11.707C7.10536 11.5195 7 11.2652 7 10.9999ZM8.75 4.74994C8.75 4.55103 8.67098 4.36026 8.53033 4.21961C8.38968 4.07896 8.19891 3.99994 8 3.99994C7.80109 3.99994 7.61032 4.07896 7.46967 4.21961C7.32902 4.36026 7.25 4.55103 7.25 4.74994V8.24994C7.25 8.44885 7.32902 8.63962 7.46967 8.78027C7.61032 8.92092 7.80109 8.99994 8 8.99994C8.19891 8.99994 8.38968 8.92092 8.53033 8.78027C8.67098 8.63962 8.75 8.44885 8.75 8.24994V4.74994Z" fill="black"/>
<path fill-rule="evenodd" clip-rule="evenodd" d="M7.26 0.212939C7.73922 0.046045 8.26078 0.046045 8.74 0.212939L13.49 1.86594C13.9311 2.01957 14.3135 2.3067 14.5841 2.68748C14.8547 3.06826 15 3.52381 15 3.99094V8.00094C15 10.0489 13.819 11.7479 12.55 12.9919C11.268 14.2469 9.793 15.1419 8.977 15.5899C8.67777 15.7549 8.34167 15.8414 8 15.8414C7.65833 15.8414 7.32223 15.7549 7.023 15.5899C6.207 15.1429 4.732 14.2479 3.451 12.9919C2.18 11.7479 1 10.0499 1 7.99994V3.99094C1 3.03394 1.606 2.18094 2.51 1.86594L7.26 0.212939ZM8.246 1.62994C8.08636 1.57439 7.91264 1.57439 7.753 1.62994L3.003 3.28294C2.85607 3.33419 2.72872 3.42987 2.63859 3.55672C2.54847 3.68358 2.50003 3.83533 2.5 3.99094V8.00094C2.5 9.45594 3.347 10.7909 4.5 11.9209C5.642 13.0389 6.983 13.8579 7.744 14.2739C7.907 14.3639 8.094 14.3639 8.256 14.2739C9.017 13.8579 10.358 13.0389 11.5 11.9209C12.653 10.7909 13.5 9.45594 13.5 8.00094V3.98994C13.4999 3.83421 13.4513 3.68237 13.361 3.5555C13.2707 3.42863 13.1431 3.33302 12.996 3.28194L8.246 1.62994Z" fill="black"/>
</svg>

<svg xmlns="http://www.w3.org/2000/svg" width="16" height="16" fill="currentColor" viewBox="0 0 16 16">
  <path d="M7 11a1 1 0 0 1 1-1h.007a1 1 0 0 1 0 2H8a1 1 0 0 1-1-1Zm1.75-6.25a.75.75 0 0 0-1.5 0v3.5a.75.75 0 0 0 1.5 0v-3.5Z"/>
  <path fill-rule="evenodd" d="M7.26.213c.48-.167 1-.167 1.48 0l4.75 1.653A2.25 2.25 0 0 1 15 3.99V8c0 2.048-1.181 3.747-2.45 4.99-1.282 1.256-2.757 2.15-3.573 2.599a2.023 2.023 0 0 1-1.954 0c-.816-.447-2.291-1.342-3.572-2.598C2.18 11.748 1 10.05 1 8V3.99c0-.956.606-1.81 1.51-2.124L7.26.213Zm.986 1.417a.75.75 0 0 0-.493 0l-4.75 1.653a.75.75 0 0 0-.503.708V8c0 1.455.847 2.79 2 3.92 1.142 1.118 2.483 1.937 3.244 2.353.163.09.35.09.512 0 .761-.416 2.102-1.235 3.244-2.353 1.153-1.13 2-2.465 2-3.92V3.99a.75.75 0 0 0-.504-.708L8.246 1.63Z" clip-rule="evenodd"/>
</svg>
